app/images/dist/date.svg

<svg width="18" height="20" viewBox="0 0 18 20" fill="none" xmlns="http://www.w3.org/2000/svg">
<path d="M16.5 8.33335H1.5M12.3333 1.66669V5.00002M5.66667 1.66669V5.00002M5.5 18.3334H12.5C13.9002 18.3334 14.6002 18.3334 15.135 18.0609C15.6054 17.8212 15.9878 17.4388 16.2275 16.9684C16.5 16.4335 16.5 15.7335 16.5 14.3334V7.33335C16.5 5.93322 16.5 5.23315 16.2275 4.69838C15.9878 4.22797 15.6054 3.84552 15.135 3.60584C14.6002 3.33335 13.9002 3.33335 12.5 3.33335H5.5C4.09987 3.33335 3.3998 3.33335 2.86503 3.60584C2.39462 3.84552 2.01217 4.22797 1.77248 4.69838C1.5 5.23315 1.5 5.93322 1.5 7.33335V14.3334C1.5 15.7335 1.5 16.4335 1.77248 16.9684C2.01217 17.4388 2.39462 17.8212 2.86503 18.0609C3.3998 18.3334 4.09987 18.3334 5.5 18.3334Z" stroke="#18191A" stroke-width="1.5" stroke-linecap="round" stroke-linejoin="round"/>
</svg>

<svg width="18" height="20" fill="none" xmlns="http://www.w3.org/2000/svg"><path d="M16.5 8.333h-15m10.833-6.666V5M5.667 1.667V5M5.5 18.333h7c1.4 0 2.1 0 2.635-.272a2.5 2.5 0 0 0 1.092-1.093c.273-.535.273-1.235.273-2.635v-7c0-1.4 0-2.1-.273-2.635a2.5 2.5 0 0 0-1.092-1.092c-.535-.273-1.235-.273-2.635-.273h-7c-1.4 0-2.1 0-2.635.273a2.5 2.5 0 0 0-1.093 1.092C1.5 5.233 1.5 5.933 1.5 7.333v7c0 1.4 0 2.1.272 2.635a2.5 2.5 0 0 0 1.093 1.093c.535.272 1.235.272 2.635.272Z" stroke="#18191A" stroke-width="1.5" stroke-linecap="round" stroke-linejoin="round"/></svg>
